X:1
T:Love Lifted Me
T:Howard E. Smith
T:Love Lifted Me
T:Public Domain
T:Public Domain
C:Howard E. Smith
Z:Public Domain
%%score ( 1 2 ) ( 3 4 )
L:1/8
M:6/8
K:Bb
V:1 treble 
V:2 treble 
V:3 bass 
V:4 bass 
V:1
 [DF]2 [DG] [DF]2 [B,D] | [DF]2 [DG] [DF]3 | [DF][DG][DA] [DB]2 [Dc] | [EA]6 | %4
w: 1.~I was sink- ing|deep in sin,|far from the peace- ful|shore,|
w: 2.~All my heart to|Him I give,|ev- er to Him I’ll|cling|
w: 3.~Souls in dan- ger|look a- bove,|Je- sus com- plete- ly|saves,|
 [EG]2 [EA] [EG]2 [CE] | [EG]2 [EA] [EG]3 | [EG][EA][EB] [EA]2 [EG] | [DF]6 | %8
w: Ver- y deep- ly|stained with- in,|sink- ing to rise no|more,|
w: In His bless- èd|pre- sence live,|ev- er His prais- es|sing,|
w: He will lift you|by His love,|out of the ang- ry|waves.|
 [DF]2 [DG] [DF]2 [B,D] | [DF]2 [DG] [DF]3 | [DF][DG][DA] [DB]2 [DF] | [EG]6 | %12
w: But the Mas- ter|of the sea,|heard my des- pair- ing|cry,|
w: Love so might- y|and so true,|mer- its my soul’s best|songs,|
w: He’s the Mas- ter|of the sea,|bil- lows His will o-|bey,|
 [EG]2 [FA] [GB]2 [_Gc] | [Fd]2 [DB] [FA]3 [DF]3 | [Ec]2 [DF] | [DB]3- [DB]2 z || %16
w: From the wa- ters|lift- ed me, now|safe am|I. *|
w: Faith- ful, lov- ing|ser- vice too, to|Him be-|longs. *|
w: He your Sav- ior|wants to be, be|saved to-|day. *|
"^Refrain" [Fd]3 [EF]2 [Ec] | (D2 E [DB]3) | [DB]3 [B,D]2 [B,A] | (B,2 =B, [CG]3) | %20
w: ||||
w: Love lift- ed|me! * *|lift- ed me!|When * *|
w: ||||
 [EG]3 (GA)[DB] | [DF]2 [DB] [FB]3 | [Fd]3 [Fd]2 [Ec] | [DB]6 |] %24
w: ||||
w: thing else * could|Love lift- ed|me! * *||
w: ||||
V:2
 x6 | x6 | x6 | x6 | x6 | x6 | x6 | x6 | x6 | x6 | x6 | x6 | x6 | x9 | x3 | x6 || x6 | B3- x3 | %18
w: ||||||||||||||||||
w: |||||||||||||||||Love|
 x6 | G3- x3 | x3 E2 x | x6 | x6 | x6 |] %24
w: ||||||
w: |no-|help||||
V:3
 [B,,B,]2 [B,,B,] [B,,B,]2 [B,,F,] | [B,,B,]2 [B,,B,] [B,,B,]3 | %2
w: ~ ~ ~ ~|~ ~ ~|
 [B,,B,][B,,B,][B,,B,] [B,,B,]2 [B,,B,] | [F,C]6 | [F,A,]2 [F,A,] [F,A,]2 [F,A,] | %5
w: ~ ~ ~ ~ ~|~|~ ~ ~ ~|
 [F,A,]2 [F,A,] [F,A,]3 | [F,A,][F,C][F,C] [F,C]2 [F,A,] | [B,,B,]6 | %8
w: ~ ~ ~|~ ~ ~ ~ ~|~|
 [B,,B,]2 [B,,B,] [B,,B,]2 [B,,F,] | [B,,B,]2 [B,,B,] [B,,B,]3 | %10
w: ~ ~ ~ ~|~ ~ ~|
 [B,,B,][B,,B,][B,,B,] [B,,B,]2 [B,,B,] | [E,B,]6 | [E,B,]2 [E,B,] [E,B,]2 [E,B,] | %13
w: ~ ~ ~ ~ ~|~|~ ~ ~ ~|
 [B,,B,]2 [B,,F,] [D,B,]3 [F,B,]3 | [F,A,]2 [F,B,] | [B,,B,]3- [B,,B,]2 z || %16
w: ~ ~ ~ ~|~ ~|~ *|
 [B,,B,]3 [F,A,]2 [F,A,] | [B,,B,]2 [B,,G,] [B,,F,]3 | [B,,F,]3 [B,,F,]2 [D,F,] | %19
w: ~ ~ ~|ev- en me!|~ ~ ~|
 E,2 [D,F,] [C,E,]3 | [E,B,]3 ([E,B,][C,F,])[B,,F,] | [B,,B,]2 [B,,F,] [D,B,]3 | %22
w: ev- en me!|||
 [F,B,]3 [F,B,]2 [F,A,] | [B,,B,]6 |] %24
w: ||
V:4
 x6 | x6 | x6 | x6 | x6 | x6 | x6 | x6 | x6 | x6 | x6 | x6 | x6 | x9 | x3 | x6 || x6 | x6 | x6 | %19
 E,2 x4 | x6 | x6 | x6 | x6 |] %24

